static/img/kroki/c3dbab35dd6f6fa8a4e9e5628c6f2894.svg

<?xml version="1.0" encoding="us-ascii" standalone="no"?><svg xmlns="http://www.w3.org/2000/svg" xmlns:xlink="http://www.w3.org/1999/xlink" contentStyleType="text/css" height="374px" preserveAspectRatio="none" style="width:349px;height:374px;" version="1.1" viewBox="0 0 349 374" width="349px" zoomAndPan="magnify"><defs/><g><!--class instance--><g id="elem_instance"><rect codeLine="23" fill="#3D176E" height="39.7891" id="instance" rx="2.5" ry="2.5" style="stroke:#000D19;stroke-width:0.5;" width="112" x="230" y="167.79"/><ellipse cx="245" cy="187.6845" fill="#ADD1B2" rx="11" ry="11" style="stroke:#181818;stroke-width:1.0;"/><path d="M247.9688,193.3252 Q247.3906,193.622 246.75,193.7627 Q246.1094,193.9189 245.4063,193.9189 Q242.9063,193.9189 241.5781,192.2783 Q240.2656,190.622 240.2656,187.497 Q240.2656,184.372 241.5781,182.7158 Q242.9063,181.0595 245.4063,181.0595 Q246.1094,181.0595 246.75,181.2158 Q247.4063,181.372 247.9688,181.6689 L247.9688,184.3877 Q247.3438,183.8095 246.75,183.5439 Q246.1563,183.2627 245.5313,183.2627 Q244.1875,183.2627 243.5,184.3408 Q242.8125,185.4033 242.8125,187.497 Q242.8125,189.5908 243.5,190.6689 Q244.1875,191.7314 245.5313,191.7314 Q246.1563,191.7314 246.75,191.4658 Q247.3438,191.1845 247.9688,190.6064 L247.9688,193.3252 Z " fill="#000000"/><text fill="#D9B8FF" font-family="Helvetica" font-size="17" lengthAdjust="spacing" textLength="70" x="264" y="193.5698">instance</text></g><!--class resource--><g id="elem_resource"><rect codeLine="26" fill="#3D176E" height="39.7891" id="resource" rx="2.5" ry="2.5" style="stroke:#000D19;stroke-width:0.5;" width="113" x="229.5" y="7"/><ellipse cx="244.5" cy="26.8945" fill="#ADD1B2" rx="11" ry="11" style="stroke:#181818;stroke-width:1.0;"/><path d="M247.4688,32.5352 Q246.8906,32.832 246.25,32.9727 Q245.6094,33.1289 244.9063,33.1289 Q242.4063,33.1289 241.0781,31.4883 Q239.7656,29.832 239.7656,26.707 Q239.7656,23.582 241.0781,21.9258 Q242.4063,20.2695 244.9063,20.2695 Q245.6094,20.2695 246.25,20.4258 Q246.9063,20.582 247.4688,20.8789 L247.4688,23.5977 Q246.8438,23.0195 246.25,22.7539 Q245.6563,22.4727 245.0313,22.4727 Q243.6875,22.4727 243,23.5508 Q242.3125,24.6133 242.3125,26.707 Q242.3125,28.8008 243,29.8789 Q243.6875,30.9414 245.0313,30.9414 Q245.6563,30.9414 246.25,30.6758 Q246.8438,30.3945 247.4688,29.8164 L247.4688,32.5352 Z " fill="#000000"/><text fill="#D9B8FF" font-family="Helvetica" font-size="17" lengthAdjust="spacing" textLength="71" x="263.5" y="32.7798">resource</text></g><!--class vsphere_instance--><g id="elem_vsphere_instance"><rect codeLine="29" fill="#3D176E" height="39.7891" id="vsphere_instance" rx="2.5" ry="2.5" style="stroke:#000D19;stroke-width:0.5;" width="187" x="42.5" y="328.58"/><ellipse cx="57.5" cy="348.4745" fill="#ADD1B2" rx="11" ry="11" style="stroke:#181818;stroke-width:1.0;"/><path d="M60.4688,354.1152 Q59.8906,354.412 59.25,354.5527 Q58.6094,354.7089 57.9063,354.7089 Q55.4063,354.7089 54.0781,353.0683 Q52.7656,351.412 52.7656,348.287 Q52.7656,345.162 54.0781,343.5058 Q55.4063,341.8495 57.9063,341.8495 Q58.6094,341.8495 59.25,342.0058 Q59.9063,342.162 60.4688,342.4589 L60.4688,345.1777 Q59.8438,344.5995 59.25,344.3339 Q58.6563,344.0527 58.0313,344.0527 Q56.6875,344.0527 56,345.1308 Q55.3125,346.1933 55.3125,348.287 Q55.3125,350.3808 56,351.4589 Q56.6875,352.5214 58.0313,352.5214 Q58.6563,352.5214 59.25,352.2558 Q59.8438,351.9745 60.4688,351.3964 L60.4688,354.1152 Z " fill="#000000"/><text fill="#D9B8FF" font-family="Helvetica" font-size="17" lengthAdjust="spacing" textLength="145" x="76.5" y="354.3598">vsphere_instance</text></g><!--class vsphere_resource--><g id="elem_vsphere_resource"><rect codeLine="32" fill="#3D176E" height="39.7891" id="vsphere_resource" rx="2.5" ry="2.5" style="stroke:#000D19;stroke-width:0.5;" width="188" x="7" y="167.79"/><ellipse cx="22" cy="187.6845" fill="#ADD1B2" rx="11" ry="11" style="stroke:#181818;stroke-width:1.0;"/><path d="M24.9688,193.3252 Q24.3906,193.622 23.75,193.7627 Q23.1094,193.9189 22.4063,193.9189 Q19.9063,193.9189 18.5781,192.2783 Q17.2656,190.622 17.2656,187.497 Q17.2656,184.372 18.5781,182.7158 Q19.9063,181.0595 22.4063,181.0595 Q23.1094,181.0595 23.75,181.2158 Q24.4063,181.372 24.9688,181.6689 L24.9688,184.3877 Q24.3438,183.8095 23.75,183.5439 Q23.1563,183.2627 22.5313,183.2627 Q21.1875,183.2627 20.5,184.3408 Q19.8125,185.4033 19.8125,187.497 Q19.8125,189.5908 20.5,190.6689 Q21.1875,191.7314 22.5313,191.7314 Q23.1563,191.7314 23.75,191.4658 Q24.3438,191.1845 24.9688,190.6064 L24.9688,193.3252 Z " fill="#000000"/><text fill="#D9B8FF" font-family="Helvetica" font-size="17" lengthAdjust="spacing" textLength="146" x="41" y="193.5698">vsphere_resource</text></g><!--reverse link resource to instance--><g id="link_resource_instance"><path codeLine="35" d="M286,65.05 C286,95.57 286,136.9 286,167.46 " fill="none" id="resource-backto-instance" style="stroke:#FFAF37;stroke-width:2.0;"/><polygon fill="none" points="286,47.05,280,65.05,292,65.05,286,47.05" style="stroke:#FFAF37;stroke-width:2.0;"/></g><!--reverse link instance to vsphere_instance--><g id="link_instance_vsphere_instance"><path codeLine="36" d="M255.5495,220.925 C226.7195,251.445 183.03,297.69 154.16,328.25 " fill="none" id="instance-backto-vsphere_instance" style="stroke:#FFAF37;stroke-width:2.0;"/><polygon fill="none" points="267.91,207.84,251.1878,216.8049,259.9112,225.0452,267.91,207.84" style="stroke:#FFAF37;stroke-width:2.0;"/></g><!--reverse link vsphere_resource to vsphere_instance--><g id="link_vsphere_resource_vsphere_instance"><path codeLine="37" d="M109.0961,225.4177 C115.8261,255.9377 125.03,297.69 131.76,328.25 " fill="none" id="vsphere_resource-backto-vsphere_instance" style="stroke:#FFAF37;stroke-width:2.0;"/><polygon fill="none" points="105.22,207.84,103.2368,226.7097,114.9553,224.1257,105.22,207.84" style="stroke:#FFAF37;stroke-width:2.0;"/></g><!--SRC=[XP3DReCm48JlVWfBEID1evOWzP8YLUqbgfhUAuFNmG9ij3Q9qfztRoW9San8ZfxvF3kxXUH0eMxidjPGPu26c5AgXY6hwH9Hxr9TQQGp8PYOnxxvh9Mz2QnO3VG5gYrOcJEV-2XaNYemXjuvrXFBomtgLl4-tY9Jvc21iWwLLioOfRKeizQ2KuOdsK88d_H3PtCUnGymmZHom2CIXY6F4X-vEUhgtWEnbbz08_TeAsrXL7Cquf-wsh8Zd9AZHK_-PCStnhbK6thlQEzz9rI0P_gwO5plEbgmohXZZ0K4RVSDfAEj85bm4L-4NwTWadUder8PorGEz9kGtwE6O7IBvzhMDCKXy_CIV_BE_mslnvyW28P1P4ZeTJ-OZD8ck3y0]--></g></svg>

<svg xmlns="http://www.w3.org/2000/svg" width="349" height="374" viewBox="0 0 349 374"><rect width="112" height="39.789" x="230" y="167.79" fill="#3D176E" rx="2.5" ry="2.5" style="stroke:#000d19;stroke-width:.5"/><circle cx="245" cy="187.685" r="11" fill="#ADD1B2" style="stroke:#181818;stroke-width:1"/><path d="M247.969 193.325q-.578.297-1.219.438-.64.156-1.344.156-2.5 0-3.828-1.64-1.312-1.657-1.312-4.782t1.312-4.781q1.328-1.656 3.828-1.656.703 0 1.344.156.656.156 1.219.453v2.719q-.625-.578-1.219-.844-.594-.281-1.219-.281-1.344 0-2.031 1.078-.687 1.062-.687 3.156t.687 3.172q.688 1.062 2.031 1.062.625 0 1.219-.265.594-.281 1.219-.86z"/><text x="264" y="193.57" fill="#D9B8FF" font-family="Helvetica" font-size="17" textLength="70">instance</text><rect width="113" height="39.789" x="229.5" y="7" fill="#3D176E" rx="2.5" ry="2.5" style="stroke:#000d19;stroke-width:.5"/><circle cx="244.5" cy="26.895" r="11" fill="#ADD1B2" style="stroke:#181818;stroke-width:1"/><path d="M247.469 32.535q-.578.297-1.219.438-.64.156-1.344.156-2.5 0-3.828-1.64-1.312-1.657-1.312-4.782t1.312-4.781q1.328-1.656 3.828-1.656.703 0 1.344.156.656.156 1.219.453v2.719q-.625-.578-1.219-.844-.594-.281-1.219-.281-1.344 0-2.031 1.078-.687 1.062-.687 3.156t.687 3.172q.688 1.062 2.031 1.062.625 0 1.219-.265.594-.281 1.219-.86z"/><text x="263.5" y="32.78" fill="#D9B8FF" font-family="Helvetica" font-size="17" textLength="71">resource</text><rect width="187" height="39.789" x="42.5" y="328.58" fill="#3D176E" rx="2.5" ry="2.5" style="stroke:#000d19;stroke-width:.5"/><circle cx="57.5" cy="348.474" r="11" fill="#ADD1B2" style="stroke:#181818;stroke-width:1"/><path d="M60.469 354.115q-.578.297-1.219.438-.64.156-1.344.156-2.5 0-3.828-1.64-1.312-1.657-1.312-4.782t1.312-4.781q1.328-1.656 3.828-1.656.703 0 1.344.156.656.156 1.219.453v2.719q-.625-.579-1.219-.844-.594-.281-1.219-.281-1.343 0-2.031 1.078-.687 1.062-.687 3.156t.687 3.172q.688 1.062 2.031 1.062.625 0 1.219-.265.594-.281 1.219-.86z"/><text x="76.5" y="354.36" fill="#D9B8FF" font-family="Helvetica" font-size="17" textLength="145">vsphere_instance</text><rect width="188" height="39.789" x="7" y="167.79" fill="#3D176E" rx="2.5" ry="2.5" style="stroke:#000d19;stroke-width:.5"/><circle cx="22" cy="187.685" r="11" fill="#ADD1B2" style="stroke:#181818;stroke-width:1"/><path d="M24.969 193.325q-.578.297-1.219.438-.64.156-1.344.156-2.5 0-3.828-1.64-1.312-1.657-1.312-4.782t1.312-4.781q1.328-1.656 3.828-1.656.703 0 1.344.156.656.156 1.219.453v2.719q-.625-.578-1.219-.844-.594-.281-1.219-.281-1.343 0-2.031 1.078-.687 1.062-.687 3.156t.687 3.172q.688 1.062 2.031 1.062.625 0 1.219-.265.594-.281 1.219-.86z"/><text x="41" y="193.57" fill="#D9B8FF" font-family="Helvetica" font-size="17" textLength="146">vsphere_resource</text><path fill="none" d="M286 65.05v102.41m0-120.41-6 18h12z" style="stroke:#ffaf37;stroke-width:2"/><g fill="none"><path d="M255.55 220.925c-28.83 30.52-72.52 76.765-101.39 107.325" style="stroke:#ffaf37;stroke-width:2"/><path d="m267.91 207.84-16.722 8.965 8.723 8.24z" style="stroke:#ffaf37;stroke-width:2"/></g><path fill="none" d="M109.096 225.418c6.73 30.52 15.934 72.272 22.664 102.832m-26.54-120.41-1.983 18.87 11.718-2.584z" style="stroke:#ffaf37;stroke-width:2"/></svg>
